images/basis/Figma Logo.svg

<svg fill="none" height="60" viewBox="0 0 60 60" width="60" xmlns="http://www.w3.org/2000/svg"><path d="m0 0h60v60h-60z" fill="#fff"/><g stroke="#000" stroke-width="3"><path d="m23.3744 50.9297c3.7656 0 6.8217-3.0561 6.8217-6.8217v-6.8216h-6.8217c-3.7656 0-6.8217 3.0561-6.8217 6.8216 0 3.7656 3.0561 6.8217 6.8217 6.8217z"/><path d="m16.5527 30.465c0-3.7656 3.0561-6.8217 6.8217-6.8217h6.8217v13.6434h-6.8217c-3.7656 0-6.8217-3.0562-6.8217-6.8217z"/><path d="m16.5527 16.8217c0-3.7656 3.0561-6.8217 6.8217-6.8217h6.8217v13.6433h-6.8217c-3.7656 0-6.8217-3.0561-6.8217-6.8216z"/><path d="m30.1978 10h6.8216c3.7656 0 6.8217 3.0561 6.8217 6.8217 0 3.7655-3.0561 6.8216-6.8217 6.8216h-6.8216z"/><path d="m43.8411 30.465c0 3.7655-3.0561 6.8217-6.8217 6.8217-3.7655 0-6.8216-3.0562-6.8216-6.8217 0-3.7656 3.0561-6.8217 6.8216-6.8217 3.7656 0 6.8217 3.0561 6.8217 6.8217z"/></g></svg>

<svg width="60" height="60" viewBox="0 0 60 60" fill="none" xmlns="http://www.w3.org/2000/svg">
<rect width="60" height="60" fill="white"/>
<path d="M23.3744 50.9297C27.14 50.9297 30.1961 47.8736 30.1961 44.108V37.2864H23.3744C19.6088 37.2864 16.5527 40.3425 16.5527 44.108C16.5527 47.8736 19.6088 50.9297 23.3744 50.9297Z" stroke="black" stroke-width="3"/>
<path d="M16.5527 30.465C16.5527 26.6994 19.6088 23.6433 23.3744 23.6433H30.1961V37.2867H23.3744C19.6088 37.2867 16.5527 34.2305 16.5527 30.465Z" stroke="black" stroke-width="3"/>
<path d="M16.5527 16.8217C16.5527 13.0561 19.6088 10 23.3744 10H30.1961V23.6433H23.3744C19.6088 23.6433 16.5527 20.5872 16.5527 16.8217Z" stroke="black" stroke-width="3"/>
<path d="M30.1978 10H37.0194C40.785 10 43.8411 13.0561 43.8411 16.8217C43.8411 20.5872 40.785 23.6433 37.0194 23.6433H30.1978V10Z" stroke="black" stroke-width="3"/>
<path d="M43.8411 30.465C43.8411 34.2305 40.785 37.2867 37.0194 37.2867C33.2539 37.2867 30.1978 34.2305 30.1978 30.465C30.1978 26.6994 33.2539 23.6433 37.0194 23.6433C40.785 23.6433 43.8411 26.6994 43.8411 30.465Z" stroke="black" stroke-width="3"/>
</svg>
